X:1
T:Ne tardes converti
T:Antoine de Févin
T:Source : Bicinia---Tomus I---Wittemberg---G.Rhau---1545. Editor : André Vierendeels (12/06/17).
T:Notes : Original clefs : F3, F3 Editorial accidentals above the staff Original note values have been halved 
T:Ne tardes converti
T:©
T:©
C:Antoine de Févin
Z:©
%%score [ 1 2 ]
L:1/8
Q:1/4=120
M:2/2
K:C
V:1 treble-8 nm="Tenor" snm="T"
V:2 bass nm="Bass" snm="B"
V:1
 c8 | c4 g4- | g2 f2 e4 | d3 c d2 e2- | e2 dc B2 d2- | d2 cB A4 | G8 | c4 d4 | e4 e2 dc | %9
w: Ne|tar- des|_ con- ver-|ti ad Do- *||* * * mi-|num,|et ne|dif- * * *|
 d2 e2 f3 g | e2 g3 f e2- | e2 dc d2 B2 | c2 d3 cBA | G2 c3 d e2 | ed c4 B2 | c8- | c8 | z4 G4 | %18
w: fe- ras _ _|de _ _ di-|* * * * e|in _ _ _ _|di- * * *||em,|_|su-|
 c3 B cd e2- | ed g4 f2 | g8 | z2 g4 fe | f2 g2 e2 d2 | z2 d2 e2 f2 | g3 f e2 d2 | e3 d/c/ de f2- | %26
w: bi- * * * to|_ _ _ e-|nim|ve- * *|* * * nit|i- ra il-|li- * * *||
 fe e4 d2 | e8 | z2 B3 c d2- | d2 cB c2 d2 | G2 d2 e2 g2- | gf e4 dc | B3 c de d2- | dcBA GABc | %34
w: |us,|et _ _|_ _ _ _ in|tem- po- re vin-|* * di- * *|ctae _ _ _ di-||
 defe/f/ e2 d2- | d2 c4 B2 | c8 |] %37
w: * * * * * * sper-|* det- *|te.|
V:2
 z8 | z4 C,4- | C,4 C,4 | G,8 | G,8 | G,4 F,4 | z2 G,3 F, G,2 | E,2 F,4 E,D, | C,8 | %9
w: |Ne|_ tar-|des|con-|ver- ti|ad _ _|Do- mi- * *|num,|
 z2 G,2 A,2 B,2 | C4 B,2 G,2 | A,4 G,4 | E,2 F,2 G,3 F, | E,D, C,2 F,2 G,2- | G,F, E,2 D,4 | %15
w: et ne dif-|fe- ras de|di- e|in di- * *|||
 C,4 z2 C,2 | F,3 E, F,G, A,2- | A,G, C4 B,2 | C4 z2 C,2 | G,4 A,4 | G,3 A, B,2 C2- | %21
w: em, su-|bi- * * * to|_ _ e- *|nim, su-|bi- to|e- * nim ve-|
 C2 B,A, B,2 C2 | A,2 G,2 z2 G,2 | A,2 B,2 C2 B,A, | G,2 C4 B,2 | A,4 G,2 A,2- | A,G, E,2 F,4 | %27
w: |* nit, i-|ra il- li- * *||||
 E,4 z2 E,2- | E,F, G,4 F,E, | F,2 G,2 C,2 G,2 | G,A,B,A,/B,/ C4 | B,2 C2 A,4 | G,8- | G,8 | %34
w: us, et|_ _ _ _ _|* in tem- po-|re- * * * * *|* vin- di-|ctae|_|
 F,4 G,3 F,/E,/ | F,E,D,C, D,4 | C,8 |] %37
w: di- sper- * *|* * * * det-|te.|

